!!!!SEGMENT: d-b--slg-bohn-ms-mus-111--023_jarzebski-adam--canzoni-e-concerti-23-norimberga.krn
!!!cenid: 16xx:1796
!!!COM: Jarzębski, Adam
!!!COM-rismID: pe30017782
!!!CDT:
!!!CNT:
!!!GTL: Canzoni e Concerti
!!!OTL: 23. Norimberga
!!!PDT: 1627
!!!AGN:
!!!SMS-siglum: D-B
!!!SMS-shelfmark: Slg Bohn Ms.mus. 111
!!!SMS-shelfwork: 023 G
!!!SMS-variant:
!!!SMS-altvar:
!!!NIFC-rismSourceID: 1001062014
!!!NIFC-rismChildID: 1001062014
!!!NIFC-islandoraID:
!!!URL-pdf-islandora:
!!!URL-scan: https://digital.staatsbibliothek-berlin.de/werkansicht/?PPN=PPN1049147219
!!!ONB-nifc: UWAGA: Prima vox: s. 36-38, Seconda vox: s. 96-98, Bassus sive Vox Tertia: s. 134-136, Basso continuo: s. 181-182. Uwaga: proszę wpisywać partie tylko występujące w danym koncercie i nazywać partie wg określeń podawanych przy danym utworze. Kody instr. dla humdrumowców podane zostaną na forum.
!!!AIN: 1 soprn 2 vox
!!!key: g
**kern	**fba	**kern	**kern	**kern
*part4	*part4	*part3	*part2	*part1
*staff4	*	*staff3	*staff2	*staff1
*I"Baſso Continúo.	*	*I"[Tertia Vox]	*I"[Seconda Vox.]	*I"[Canto]
*I'bc	*	*I'V III	*I'V II	*I'S I
*	*	*ICvox	*ICvox	*ICvox
*	*	*Ivox	*Ivox	*Isoprn
*IGcont	*	*	*	*
*clefF4	*	*clefF4	*clefC4	*clefG2
*	*	*	*mclefG2	*
*k[]	*	*k[]	*k[]	*k[]
*g:	*	*g:	*g:	*g:
*M2/1	*	*M2/1	*M2/1	*M2/1
*met(C|)	*	*met(C|)	*met(C|)	*met(C|)
*mmet(C)	*	*mmet(C)	*mmet(C)	*mmet(C)
=1-	=1-	=1-	=1-	=1-
!!LO:TX:t=P:problem: all\ right or middle	!	!	!
!LO:TX:a:t=A.3. Sopr&colon; è doi. Bastarda:mod=	!	!LO:TX:a:t=A.3. Sopr&colon; è doi. Baſso.:mod=	!LO:TX:a:t=A.3. Soprano è doi. Bastarda:mod=	!LO:TX:a:t=A.3. Sopr&colon; è doi. Bastardá:mod=
4D/	.	0r	4d\	4dd\
8D/L	.	.	8d\L	8dd\L
8D/J	.	.	8d\J	8dd\J
4D/	.	.	4d\	4dd\
4C#X/	.	.	4c#Xi\	4ee\
*	*	*	*2\right	*
2D/	.	.	2d\	4ff\
.	.	.	.	4dd\
!LO:TX:t=P:problem:kreska pseudotaktowa	!	!	!	!
2BB-X/	.	.	2B-X\	4ff\
.	.	.	.	4gg\
=2-	=2-	=2-	=2-	=2-
4AA/	.	4AA/	2A/	1aa
8AA/L	.	8AA/L	.	.
8AA/J	.	8AA/J	.	.
4AA/	.	4AA/	4r	.
4AA/	.	4AA/	4A/	.
4BBny/	.	4BB/	2G/	1r
4Cny/	.	4C/	.	.
1D\	.	1D\	2F/	.
=3-	=3-	=3-	=3-	=3-
.	.	.	1E	8r
.	.	.	.	8ee\L
.	.	.	.	8ff\
.	.	.	.	8gg\J
!LO:TX:t=P:problem:kreska pseudotaktowa	!	!	!	!
2C#X/	.	2C#X/	.	8aa\L
.	.	.	.	8ee\
.	.	.	.	8aa\
!	!	!	!	!LO:TX:t=P:problem:kreska pseudotaktowa
.	.	.	.	8gg\J
0D	.	0D	1D	4ff#X\
.	.	.	.	8dd\L
.	.	.	.	8dd\J
.	.	.	.	4dd\
.	.	.	.	4ee\
=4-	=4-	=4-	=4-	=4-
.	.	.	8r	4ffny\
.	.	.	8d\L	.
.	.	.	8d\	4dd\
.	.	.	8d\J	.
.	.	.	4d\	4ff\
.	.	.	4e\	4gg\
*	*	*	*	*2\right
4D/	.	8r	4f\	2aa\
.	.	8D/L	.	.
8D/L	.	8D/	4d\	.
8D/J	.	8D/J	.	.
4D/	.	4D/	4f\	8r
.	.	.	.	8dd\L
4E\	.	4E\	4g\	8cc\
!	!	!	!	!LO:TX:t=P:problem:kreska pseudotaktowa
.	.	.	.	8b-Xi\J
*custos:F	*	*	*	*custos:a
!LO:LB:g=original	!	!	!	!LO:LB:g=original
=5-	=5-	=5-	=5-	=5-
4F\	.	4F\	2a\	2a/
4D/	.	4D/	.	.
4F\	.	4F\	8r	2r
.	.	.	8a\L	.
!LO:TX:t=P:problem:kreska pseudotaktowa	!	!	!	!
4G\	.	4G\	8g\	.
.	.	.	8f\J	.
*	*	*custos:A	*	*
!	!	!LO:LB:g=original	!	!
*	*	*2\right	*	*
2A\	.	2A\	4.e\	8r
.	.	.	.	8aa\L
.	.	.	.	8gg\
.	.	.	8d\	8ff\J
2AA/	.	8r	4cny\	2ee\
.	.	8A\L	.	.
.	.	8G\	8Bny\L	.
.	.	8F\J	8A\J	.
=6-	=6-	=6-	=6-	=6-
4.E\	.	4.E\	2B\	8r
.	.	.	.	8gg\L
.	.	.	.	8gg\
8D/	.	8D/	.	8ff\J
4Cny/	.	4Cny/	2c\	8ee\L
.	.	.	.	16ff\L
.	.	.	.	16ee\J
8BB/L	.	8BB/L	.	8dd\
!	!	!	!	!LO:TX:t=P:problem:kreska pseudotaktowa
8AA/J	.	8AA/J	.	8cc\J
!LO:TX:t=P:problem:kreska pseudotaktowa	!	!	!	!
1E	.	1E	8G#X/	8bny\L
.	.	.	8c\L	8ee\
.	.	.	8c\	8ee\
.	.	.	16B\L	16dd\L
.	.	.	16A\JJ	16cc\JJ
.	.	.	8G#X/	8.b/L
.	.	.	4A/	.
.	.	.	.	16cc/Jk
.	.	.	.	8.b/L
.	.	.	8G#Xi/	.
.	.	.	.	16cc/Jk
=7-	=7-	=7-	=7-	=7-
00AA	.	8r	2A/	1a
.	.	8A\L	.	.
.	.	8A\	.	.
.	.	8A\J	.	.
*	*	*	*clefF4	*
.	.	4A\	2r	.
.	.	4B\	.	.
.	.	4c#X\	8r	1r
.	.	.	8AA/L	.
.	.	4A\	8AA/	.
.	.	.	8AA/J	.
.	.	4c#\	4AA/	.
!	!	!	!LO:TX:t=P:problem:kreska pseudotaktowa	!
.	.	4d\	4BB/	.
=8-	=8-	=8-	=8-	=8-
.	.	2A\	4C#X/	8r
.	.	.	.	8a/L
.	.	.	4AA/	8a/
.	.	.	.	8a/J
!	!	!	!LO:TX:a:t=P:problem:# below	!
.	.	2AA/	4C#X/	4a/
!	!	!	!LO:TX:t=P:problem:kreska pseudotaktowa	!
.	.	.	4D/	4b/
.	.	2r	8AA/L	4cc\
.	.	.	8A\	.
.	.	.	8A\	4a/
.	.	.	8A\J	.
.	.	[2A\	4A\	4cc\
.	.	.	4B\	4dd\
=9-	=9-	=9-	=9-	=9-
1AA	.	16A\LL]	4c#Xi\	4ee\
.	.	16G\	.	.
.	.	16F\	.	.
.	.	16E\JJ	.	.
*	*	*custos:D	*	*
!	!	!LO:LB:g=original	!	!
.	.	8D/L	2d\	8ff\L
.	.	16C/L	.	8gg\
.	.	16BB/JJ	.	.
.	.	8AA/L	.	8aa\
.	.	8GG/J	.	8bb-Xi\J
.	.	4AA/	4c#Xi\	8.ee\L
.	.	.	.	16ff\Jk
!LO:TX:t=P:problem:kreska pseudotaktowa	!	!	!	!
1D	.	1D	1d	1dd
*	*	*	*clefC4	*
=10-	=10-	=10-	=10-	=10-
2r	.	2r	2r	2r
2D/	.	2D/	2f\	2dd\
2D/	.	2D/	2f\	2dd\
!LO:TX:t=P:problem:kreska pseudotaktowa	!	!	!	!
2D/	.	2D/	2f\	2dd\
*	*	*	*	*custos:cc#
!	!	!	!	!LO:LB:g=original
=11-	=11-	=11-	=11-	=11-
1AA	.	1AA	1e	1cc#X
*	*	*	*custos:d	*
!	!	!	!LO:LB:g=original	!
2r	.	2r	2r	2r
2D/	.	2DD/	2d\	2ff\
=12-	=12-	=12-	=12-	=12-
2D/	.	2DD/	2d\	2ff\
2D/	.	2DD/	2d\	2ff\
!LO:TX:t=P:problem:kreska pseudotaktowa	!	!LO:TX:t=P:problem:kreska pseudotaktowa	!	!LO:TX:t=P:problem:kreska pseudotaktowa
1AA	.	1AA	1c#X	1ee
*	*	*	*clefF4	*
=13-	=13-	=13-	=13-	=13-
8r	.	8r	8r	8r
8D/L	.	8F\L	8D/L	8dd\L
8D/	.	8F\	8D/	8dd\
8D/J	.	8F\J	8D/J	8dd\J
8AA/L	.	8.E\L	8.AA/L	8.cc#X\L
8AA/	.	.	.	.
.	.	16E\Jk	16AA/Jk	16cc#\Jk
8AA/	.	8.E\L	8.AA/L	8.cc#\L
8AA/J	.	.	.	.
!	!	!LO:TX:t=P:problem:kreska pseudotaktowa	!	!
!	!	!	!LO:TX:t=P:problem:kreska pseudotaktowa	!LO:TX:t=P:problem:kreska pseudotaktowa
.	.	16E\Jk	16AA/Jk	16cc#\Jk
*custos:D	*	*custos:D	*	*
!LO:LB:g=original	!	!LO:LB:g=original	!	!
8D/L	.	8.D/L	8.DD/L	8.ff\L
8D/	.	.	.	.
.	.	16D/Jk	16DD/Jk	16ff\Jk
8D/	.	8.D/L	8.DD/L	8.ff\L
8D/J	.	.	.	.
.	.	16D/Jk	16DD/Jk	16ff\Jk
8AA/L	.	8.C#X/L	8.AA/L	8.ee\L
8AA/	.	.	.	.
.	.	16C#/Jk	16AA/Jk	16ee\Jk
8AA/	.	8.C#/L	8.AA/L	8.ee\L
!LO:TX:t=P:problem:kreska pseudotaktowa	!	!	!	!
8AA/J	.	.	.	.
!	!	!LO:TX:t=P:problem:kreska pseudotaktowa	!LO:TX:t=P:problem:kreska pseudotaktowa	!LO:TX:t=P:problem:kreska pseudotaktowa
.	.	16C#/Jk	16AA/Jk	16ee\Jk
=14-	=14-	=14-	=14-	=14-
!	!	!	!LO:TX:t=P:problem:mixed beam	!
4D/	.	8.D/L	8.DD/L	8.dd\L
.	.	16D/Jk	16F\Jk	16dd\Jk
4AA/	.	8.AA/L	8.E\L	8.cc#X\L
.	.	16AA/Jk	16E\Jk	16cc#\Jk
4D/	.	8.DD/L	8.D/L	8.ff\L
.	.	16DD/Jk	16D/Jk	16ff\Jk
4AA/	.	8.AA/L	8.C#X/L	8.ee\L
!	!	!LO:TX:t=P:problem:kreska pseudotaktowa	!LO:TX:t=P:problem:kreska pseudotaktowa	!LO:TX:t=P:problem:kreska pseudotaktowa
.	.	16AA/Jk	16C#/Jk	16ee\Jk
!	!	!LO:TX:t=P:problem:mixed beam	!	!
!	!	!LO:TX:a:t=D:mod=	!	!
4D/	.	8.DD/L	8.D/L	8.dd\L
.	.	16F\Jk	16D/Jk	16dd\Jk
4AA/	.	8.E\L	8.AA/L	8.cc#X\L
.	.	16E\Jk	16AA/Jk	16cc#\Jk
4D/	.	8.D/L	8.DD/L	8.ff\L
.	.	16D/Jk	16DD/Jk	16ff\Jk
*	*	*custos:C#	*	*
!LO:TX:t=P:problem:kreska pseudotaktowa	!	!LO:LB:g=original	!	!
4AA/	.	8C#X/L	8.AA/L	8.ee\L
!	!	!LO:TX:t=P:problem:kreska pseudotaktowa	!	!
.	.	8C#/J	.	.
!	!	!	!LO:TX:t=P:problem:kreska pseudotaktowa	!
.	.	.	16AA/Jk	16ee\Jk
=15-	=15-	=15-	=15-	=15-
!	!	!	!LO:TX:t=P:problem:mixed beam	!
4D/	.	8.D/L	8.DD/L	8.dd\L
.	.	16D/Jk	16F\Jk	16dd\Jk
*	*	*	*custos:E	*
!	!	!	!LO:LB:g=original	!
4AA/	.	8.AA/L	8.E\L	8.cc#X\L
.	.	16AA/Jk	16E\Jk	16cc#\Jk
4D/	.	8.DD/L	8.D/L	8.ff\L
.	.	16DD/Jk	16D/Jk	16ff\Jk
4AA/	.	8.AA/L	8.C#X/L	8.ee\L
!	!	!LO:TX:t=P:problem:kreska pseudotaktowa	!LO:TX:t=P:problem:kreska pseudotaktowa	!LO:TX:t=P:problem:kreska pseudotaktowa
.	.	16AA/Jk	16C#/Jk	16ee\Jk
4D/	.	8.D/L	16F\LL	8.dd\L
.	.	.	16Gny\	.
.	.	.	16A\	.
.	.	16D/Jk	16F\JJ	16dd\Jk
4AA/	.	8.AA/L	16E\LL	8.cc#Xi\L
.	.	.	16F\	.
.	.	.	16G\	.
.	.	16AA/Jk	16E\JJ	16cc#\Jk
4D/	.	8.DD/L	16D\LL	16ff\LL
.	.	.	16E\	16gg\
.	.	.	16F\	16aa\
.	.	16DD/Jk	16D\JJ	16ff\JJ
!LO:TX:t=P:problem:kreska pseudotaktowa	!	!	!	!
4AA/	.	8.AA/L	16C#X/LL	16ee\LL
.	.	.	16D/	16ff\
.	.	.	16E/	16gg\
!	!	!	!LO:TX:t=P:problem:kreska pseudotaktowa	!
!	!	!LO:TX:t=P:problem:kreska pseudotaktowa	!LO:TX:a:t=P:problem:# below	!LO:TX:t=P:problem:kreska pseudotaktowa
.	.	16AA/Jk	16C#X/JJ	16ee\JJ
=16-	=16-	=16-	=16-	=16-
4D/	.	16F\LL	8.D/L	16dd\LL
.	.	16G\	.	16ee\
.	.	16A\	.	16ff\
.	.	16F\JJ	16D/Jk	16dd\JJ
*	*	*custos:E	*	*
!	!	!LO:LB:g=original	!	!
4AA/	.	16E\LL	8.AA/L	16cc#X\LL
.	.	16F\	.	16dd\
.	.	16G\	.	16ee\
.	.	16E\JJ	16AA/Jk	16cc#X\JJ
4D/	.	16D\LL	8.DD/L	16ff\LL
.	.	16E\	.	16gg\
.	.	16F\	.	16aa\
.	.	16D\JJ	16DD/Jk	16ff\JJ
4AA/	.	16C#X/LL	8.AA/L	16ee\LL
.	.	16D/	.	16ff\
.	.	16E/	.	16gg\
!	!	!LO:TX:t=P:problem:kreska pseudotaktowa	!	!LO:TX:t=P:problem:kreska pseudotaktowa
.	.	16C#/JJ	16AA/Jk	16ee\JJ
4D/	.	8.D/L	16F\LL	16dd\LL
.	.	.	16G\	16ee\
.	.	.	16A\	16ff\
.	.	16D/Jk	16F\JJ	16dd\JJ
4AA/	.	8.AA/L	16E\LL	16cc#X\LL
.	.	.	16F\	16dd\
.	.	.	16G\	16ee\
.	.	16AA/Jk	16E\JJ	16cc#Xi\JJ
*	*	*	*	*custos:ff
!	!	!	!	!LO:LB:g=original
4D/	.	8.DD/L	16D\LL	16ff\LL
.	.	.	16E\	16gg\
.	.	.	16F\	16aa\
.	.	16DD/Jk	16D\JJ	16ff\JJ
*	*	*	*custos:C#	*
!LO:TX:t=P:problem:kreska pseudotaktowa	!	!	!LO:LB:g=original	!
4AA/	.	8.AA/L	16C#X/LL	16ee\LL
.	.	.	16D/	16ff\
.	.	.	16E/	16gg\
!	!	!	!LO:TX:t=P:problem:kreska pseudotaktowa	!
!	!	!LO:TX:t=P:problem:kreska pseudotaktowa	!LO:TX:a:t=P:problem:# below	!LO:TX:t=P:problem:kreska pseudotaktowa
.	.	16AA/Jk	16C#X/JJ	16ee\JJ
*	*	*clefF5	*	*
=17-	=17-	=17-	=17-	=17-
4D/	.	8.Cny\L	16E\LL	16cc\LL
.	.	.	16F\	16dd\
.	.	.	16G\	16ee\
.	.	16C\Jk	16E\JJ	16cc\JJ
4GG/	.	8.GG/L	16D\LL	16b\LL
.	.	.	16E\	16cc\
.	.	.	16F\	16dd\
.	.	16GG/Jk	16D\JJ	16b\JJ
*	*	*custos:CC	*	*
!	!	!LO:LB:g=original	!	!
4D/	.	8.CC/L	16Cny/LL	16ee\LL
.	.	.	16D/	16ff\
.	.	.	16E/	16gg\
.	.	16CC/Jk	16C/JJ	16ee\JJ
4GG/	.	8.GG/L	16BB/LL	16dd\LL
.	.	.	16C/	16ee\
.	.	.	16D/	16ff\
!	!	!LO:TX:t=P:problem:kreska pseudotaktowa	!LO:TX:t=P:problem:kreska pseudotaktowa	!LO:TX:t=P:problem:kreska pseudotaktowa
.	.	16GG/Jk	16BB/JJ	16dd\JJ
*	*	*	*clefF5	*
4D/	.	16E\LL	8.C\L	16cc\LL
.	.	16F\	.	16dd\
.	.	16G\	.	16ee\
.	.	16E\JJ	16C\Jk	16cc\JJ
4GG/	.	16D\LL	8.GG/L	16b\LL
.	.	16E\	.	16cc\
.	.	16F\	.	16dd\
.	.	16D\JJ	16GG/Jk	16b\JJ
4D/	.	16C\LL	8.CC/L	16ee\LL
.	.	16D\	.	16ff\
.	.	16E\	.	16gg\
.	.	16C\JJ	16CC/Jk	16ee\JJ
!LO:TX:t=P:problem:kreska pseudotaktowa	!	!	!	!
4GG/	.	16BB\LL	8.GG/L	16dd\LL
.	.	16C\	.	16ee\
.	.	16D\	.	16ff\
!	!	!LO:TX:t=P:problem:kreska pseudotaktowa	!LO:TX:t=P:problem:kreska pseudotaktowa	!LO:TX:t=P:problem:kreska pseudotaktowa
.	.	16BB\JJ	16GG/Jk	16dd\JJ
*custos:C	*	*	*clefF4	*
!LO:LB:g=original	!	!	!	!
=18-	=18-	=18-	=18-	=18-
4C/	.	8.C\L	16E\LL	16cc\LL
.	.	.	16F\	16dd\
.	.	.	16G\	16ee\
.	.	16C\Jk	16E\JJ	16cc\JJ
4GG/	.	8.GG/L	16D/LL	16b\LL
.	.	.	16E/	16cc\
.	.	.	16F/	16dd\
.	.	16GG/Jk	16D/JJ	16b\JJ
*	*	*	*	*custos:ee
!	!	!	!	!LO:LB:g=original
4C/	.	8.CC/L	16C/LL	16ee\LL
.	.	.	16D/	16ff\
.	.	.	16E/	16gg\
.	.	16CC/Jk	16C/JJ	16ee\JJ
*	*	*	*custos:BB	*
!	!	!	!LO:LB:g=original	!
4GG/	.	8.GG/L	16BB/LL	16dd\LL
.	.	.	16C/	16ee\
.	.	.	16D/	16ff\
!	!	!	!LO:TX:t=P:problem:kreska pseudotaktowa	!
.	.	16GG/Jk	16BB/JJ	16dd\JJ
*	*	*clefC4	*	*
*	*	*custos:c	*	*
!	!	!LO:LB:g=original	!	!
4AA/	.	16cny\LL	8.AA/L	16a/LL
.	.	16d\	.	16b/
.	.	16e\	.	16cc/
.	.	16c\JJ	16AA/Jk	16a/JJ
!	!	!	!	!LO:TX:b:t=P:problem:# below
4E\	.	16B\LL	8.E\L	16g#X/LL
.	.	16c\	.	16a/
.	.	16d\	.	16b/
!	!	!	!	!LO:TX:b:t=P:problem:# below
.	.	16B\JJ	16E\Jk	16g#X/JJ
4AA/	.	16A\LL	8.AA/L	16cc\LL
.	.	16B\	.	16dd\
.	.	16c\	.	16ee\
.	.	16A\JJ	16AA/Jk	16cc\JJ
!LO:TX:t=P:problem:kreska pseudotaktowa	!	!	!	!
4E\	.	16G#X/LL	8.EE/L	16b\LL
.	.	16A/	.	16cc\
.	.	16B/	.	16dd\
!	!	!LO:TX:t=P:problem:kreska pseudotaktowa	!LO:TX:t=P:problem:kreska pseudotaktowa	!LO:TX:t=P:problem:kreska pseudotaktowa
.	.	16G#X/JJ	16EE/Jk	16b\JJ
*	*	*clefF4	*clefC4	*
=19-	=19-	=19-	=19-	=19-
4AA/	.	8.A\L	16cny\LL	16a/LL
.	.	.	16d\	16b/
.	.	.	16e\	16cc/
.	.	16A\Jk	16c\JJ	16a/JJ
!	!	!	!	!LO:TX:b:t=P:problem:# below
4E\	.	8.E\L	16B\LL	16g#X/LL
.	.	.	16c\	16a/
.	.	.	16d\	16b/
!	!	!	!	!LO:TX:b:t=P:problem:# below
.	.	16E\Jk	16B\JJ	16g#X/JJ
4AA/	.	8.AA/L	16A\LL	16cc\LL
.	.	.	16B\	16dd\
.	.	.	16c\	16ee\
.	.	16AA/Jk	16A\JJ	16cc\JJ
4E\	.	8.E\L	16G#X/LL	16b\LL
.	.	.	16A/	16cc\
.	.	.	16B/	16dd\
!	!	!	!LO:TX:t=P:problem:kreska pseudotaktowa	!
!	!	!LO:TX:t=P:problem:kreska pseudotaktowa	!LO:TX:b:t=P:problem:# below	!LO:TX:t=P:problem:kreska pseudotaktowa
.	.	16E\Jk	16G#X/JJ	16b\JJ
4AA/	.	8.AA/L	16A\LL	16cc\LL
.	.	.	16B\	16dd\
.	.	.	16c\	16ee\
.	.	16AA/Jk	16A\JJ	16cc\JJ
4GG/	.	8.GG/L	16B\LL	16dd\LL
.	.	.	16c\	16ee\
.	.	.	16d\	16ff\
.	.	16GG/Jk	16B\JJ	16dd\JJ
*	*	*custos:C	*	*
!	!	!LO:LB:g=original	!	!
4C/	.	4C/	16c\LL	16ee\LL
.	.	.	16d\	16ff\
.	.	.	16e\	16gg\
.	.	.	16c\JJ	16ee\JJ
*	*	*	*custos:d	*
!LO:TX:t=P:problem:kreska pseudotaktowa	!	!	!LO:LB:g=original	!
4D/	.	4r	16d\LL	16ff#Xi\LL
.	.	.	16e\	16gg\
.	.	.	16f\	16aa\
!	!	!	!	!LO:TX:t=P:problem:kreska pseudotaktowa
!	!	!	!LO:TX:t=P:problem:kreska pseudotaktowa	!
.	.	.	16d\JJ	16ff#Xi\JJ
=20-	=20-	=20-	=20-	=20-
2E\	.	16E\LL	4e\	16gg#X\LL
.	.	16F\	.	16aa\
.	.	16Gny\	.	16bbny\
.	.	16E\JJ	.	16gg#Xi\JJ
*	*	*	*	*custos:a
!	!	!	!	!LO:LB:g=original
.	.	16F\LL	4r	16a/LL
.	.	16G\	.	16b/
.	.	16A\	.	16cc/
.	.	16F\JJ	.	16a/JJ
2.E\	.	16G#X\LL	16E/LL	4b/
.	.	16A\	16F#Xi/	.
.	.	16B\	16Gny/	.
.	.	16G#\JJ	16E/JJ	.
!	!	!	!LO:TX:b:t=P:problem:# below	!LO:TX:t=P:problem:kreska pseudotaktowa
.	.	16A\LL	16F#X/LL	4a/
.	.	16B\	16G/	.
.	.	16c\	16A/	.
!	!	!	!LO:TX:t=P:problem:kreska pseudotaktowa	!
!	!	!LO:TX:t=P:problem:kreska pseudotaktowa	!LO:TX:b:t=P:problem:# below	!
.	.	16A\JJ	16F#X/JJ	.
.	.	8.E\L	16G#X/LL	16b\LL
.	.	.	16A/	16cc\
.	.	.	16B/	16dd\
!	!	!	!LO:TX:b:t=P:problem:# below	!
.	.	16E\Jk	16G#X/JJ	16b\JJ
4AA/	.	8.AA/L	16A\LL	16cc\LL
.	.	.	16B\	16dd\
.	.	.	16c\	16ee\
.	.	16AA/Jk	16A\JJ	16cc\JJ
4E\	.	8.EE/L	16B\LL	16g#X/LL
.	.	.	16c\	16a/
.	.	.	16d\	16b/
!	!	!	!	!LO:TX:b:t=P:problem:# below
.	.	16EE/Jk	16B\JJ	16g#X/JJ
4AA/	.	8.AA/L	16c\LL	16a/LL
.	.	.	16d\	16b/
.	.	.	16e\	16cc/
!	!	!	!LO:TX:t=P:problem:kreska pseudotaktowa	!LO:TX:t=P:problem:kreska pseudotaktowa
.	.	16AA/Jk	16c\JJ	16a/JJ
=21-	=21-	=21-	=21-	=21-
!LO:TX:t=P:problem:kreska pseudotaktowa	!	!	!	!
1E	.	2E\	8B\	16g#X/LL
.	.	.	.	16a/
!	!	!	!LO:TX:b:t=P:problem:# below	!
.	.	.	16G#X/LL	16b/
.	.	.	16A/JJ	16cc/JJ
.	.	.	16B\LL	16dd\LL
.	.	.	16c\	16ee\
.	.	.	16d\	16ff#Xi\
.	.	.	16e\JJ	16gg#Xi\JJ
!	!	!LO:TX:t=P:problem:kreska pseudotaktowa	!	!
.	.	2EE/	2B\	16aa\LL
.	.	.	.	16gg#Xi\
.	.	.	.	16aa\
.	.	.	.	16gg#Xi\
.	.	.	.	16aa\
.	.	.	.	16gg#Xi\
.	.	.	.	16aa\
!	!	!	!	!LO:TX:t=P:problem:kreska pseudotaktowa
.	.	.	.	16gg#Xi\JJ
=22-	=22-	=22-	=22-	=22-
*M3/2	*	*M3/2	*M3/2	*M3/2
*met(3)	*	*met(3)	*met(3)	*met(3)
1AA	.	1AA	1A	1aa
2AA/	.	2AA/	2e\	2cc\
*	*	*custos:FF	*custos:f	*
!	!	!LO:LB:g=original	!LO:LB:g=original	!
=23-	=23-	=23-	=23-	=23-
1FF	.	1FF	1f	1aa
2GG/	.	2GG/	4e\	4ggny\
.	.	.	4d\	4ffny\
*custos:AA	*	*	*	*
!LO:LB:g=original	!	!	!	!
=24-	=24-	=24-	=24-	=24-
1AA	.	1AA	1c#X	2.ee\
.	.	.	.	4ff\
2DD/	.	2DD/	2d\	2dd\
*	*	*	*	*custos:cc#
!	!	!	!	!LO:LB:g=original
=25-	=25-	=25-	=25-	=25-
1AA	.	1AA	2.e\	2.cc#X\
.	.	.	4d\	4dd\
!LO:TX:t=P:problem:kreska pseudotaktowa	!	!	!LO:TX:t=P:problem:kreska pseudotaktowa	!
2AA/	.	2AA/	2c#X\	2ee\
=26-	=26-	=26-	=26-	=26-
1D	.	2DD/	1d	1dd
.	.	1F	.	.
*	*	*	*clefF4	*
2DD/	.	.	2DD/	2r
=27-	=27-	=27-	=27-	=27-
1FF	.	1F	1FF	1aa
!LO:TX:t=P:problem:kreska pseudotaktowa	!	!	!	!
2GG/	.	4E\	2GG/	4gg\
.	.	4D/	.	4ff\
=28-	=28-	=28-	=28-	=28-
1AA	.	1C#X	1AA	2.ee\
.	.	.	.	4ff\
2DD/	.	2D/	2DD/	2dd\
=29-	=29-	=29-	=29-	=29-
1AA	.	2.E\	1AA	2.cc#X\
.	.	4D/	.	4dd\
!LO:TX:t=P:problem:kreska pseudotaktowa	!	!	!	!
2AA/	.	2C#X/	2AA/	2ee\
=30-	=30-	=30-	=30-	=30-
1D	.	1D	[>2DD/	1dd
.	.	.	2DD/]	.
*	*	*	*clefC4	*
!	!	!	!LO:TX:t=P:problem:kreska pseudotaktowa	!
2D/	.	2DD/	2f\	2r
=31-	=31-	=31-	=31-	=31-
1E	.	1EE	1e	1gg
!LO:TX:t=P:problem:kreska pseudotaktowa	!	!	!	!
2F\	.	2FF/	4d\	4ff\
.	.	.	4cny\	4ee\
=32-	=32-	=32-	=32-	=32-
1G	.	1GG	1B	2.dd\
.	.	.	.	4ee\
2C/	.	2Cny/	2c\	2ccny\
*	*	*custos:GG	*	*
!	!	!LO:LB:g=original	!	!
=33-	=33-	=33-	=33-	=33-
1G	.	1GG	2.d\	2.b/
.	.	.	4c\	4cc\
!LO:TX:t=P:problem:kreska pseudotaktowa	!	!	!	!
2G\	.	2GG/	2B\	2dd\
=34-	=34-	=34-	=34-	=34-
1C	.	1C	1c	1cc
*	*	*clefC4	*clefF4	*
2C/	.	2e\	2C/	2r
*	*	*	*custos:E	*
!	!	!	!LO:LB:g=original	!
=35-	=35-	=35-	=35-	=35-
1E	.	1e	1E	1gg
!LO:TX:t=P:problem:kreska pseudotaktowa	!	!	!	!
2F\	.	4d\	2Fny\	4ff\
.	.	4c\	.	4ee\
*custos:G	*	*	*	*
!LO:LB:g=original	!	!	!	!
=36-	=36-	=36-	=36-	=36-
1G	.	1B	1Gny	2.dd\
.	.	.	.	4ee\
2C/	.	2c\	2C/	2cc\
*	*	*	*	*custos:b
!	!	!	!	!LO:LB:g=original
=37-	=37-	=37-	=37-	=37-
1G	.	2.d\	1G	2.b/
.	.	4c\	.	4cc\
!LO:TX:t=P:problem:kreska pseudotaktowa	!	!	!LO:TX:t=P:problem:kreska pseudotaktowa	!
2G\	.	2B\	2G\	2dd\
=38-	=38-	=38-	=38-	=38-
1C	.	1c	1C	1cc
*	*	*	*clefC4	*
2C/	.	2C/	2c\	2ee\
=39-	=39-	=39-	=39-	=39-
1C	.	1C	1c	1ee
!LO:TX:t=P:problem:kreska pseudotaktowa	!	!	!	!
2C/	.	2D/	4B\	4dd\
.	.	.	4A/	4cc\
=40-	=40-	=40-	=40-	=40-
1E	.	1E	1G#X	2.b/
.	.	.	.	4cc\
!	!	!	!	!LO:TX:t=P:problem:znak oznaczający inny dźwięk
2AA/	.	2AA/	2A/	2b/
=41-	=41-	=41-	=41-	=41-
1E	.	1E	2.B\	2.g#X/
.	.	.	4A/	4a/
!LO:TX:t=P:problem:kreska pseudotaktowa	!	!	!LO:TX:t=P:problem:kreska pseudotaktowa	!
2E\	.	2E/	2G#X/	2b/
=42-	=42-	=42-	=42-	=42-
1AA	.	1AA	1A	1a
*	*	*	*clefF4	*
2AA/	.	2c\	2AA/	2r
*	*	*custos:c	*	*
!	!	!LO:LB:g=original	!	!
=43-	=43-	=43-	=43-	=43-
1C	.	2.c\	1C	1ee
.	.	4B\	.	.
!LO:TX:t=P:problem:kreska pseudotaktowa	!	!	!	!
2D/	.	2A/	2D/	4dd\
.	.	.	.	4cc\
=44-	=44-	=44-	=44-	=44-
1E	.	1G#X	1E	2.b/
.	.	.	.	4cc\
2AA/	.	2A/	2AA/	2a/
=45-	=45-	=45-	=45-	=45-
1E	.	2.B\	1E	2.g#X/
.	.	4A/	.	4a/
!LO:TX:t=P:problem:kreska pseudotaktowa	!	!LO:TX:a:t=P:problem:# below	!	!
2E\	.	2G#X/	2E\	2b/
=46-	=46-	=46-	=46-	=46-
1AA	.	1A	1AA	1a
*	*	*clefF4	*clefC4	*
2AA/	.	2AA/	2e\	2cc\
*	*	*	*custos:f	*
!	!	!	!LO:LB:g=original	!
=47-	=47-	=47-	=47-	=47-
1FF	.	1FF	1f	1aa
2GG/	.	2GG/	4e\	4gg\
.	.	.	4d\	4ff\
*custos:AA	*	*	*	*
!LO:LB:g=original	!	!	!	!
=48-	=48-	=48-	=48-	=48-
1AA	.	1AA	1c#X	2.ee\
.	.	.	.	4ff\
2DD/	.	2DD/	2d\	2dd\
*	*	*	*	*custos:cc#
!	!	!	!	!LO:LB:g=original
=49-	=49-	=49-	=49-	=49-
1AA	.	1AA	2.e\	2.cc#X\
.	.	.	4d\	4dd\
!LO:TX:t=P:problem:kreska pseudotaktowa	!	!	!	!
2AA/	.	2AA/	2c#X\	2ee\
=50-	=50-	=50-	=50-	=50-
1.DD	.	1DD	1d	1dd
!	!	!	!LO:TX:t=P:problem:kreska pseudotaktowa	!
.	.	2r	2r	2r
*	*	*custos:FF	*	*
!	!	!LO:PB:g=original	!	!
=51-	=51-	=51-	=51-	=51-
!LO:TX:t=P:problem: 2 ligatury	!	!	!	!
[<[>2FF/	.	1FF	1f	1aa
2FF/]]	.	.	.	.
!LO:TX:t=P:problem:kreska pseudotaktowa	!	!	!	!
2GG/	.	2GG/	4e\	4gg\
.	.	.	4d\	4ff\
=52-	=52-	=52-	=52-	=52-
1AA	.	1AA	1c#X	2.ee\
.	.	.	.	4ff\
2DD/	.	2DD/	2d\	2dd\
=53-	=53-	=53-	=53-	=53-
1AA	.	1AA	2.e\	2.cc#X\
.	.	.	4d\	4dd\
!LO:TX:t=P:problem:kreska pseudotaktowa	!	!	!	!
2AA/	.	2AA/	2c#X\	2ee\
=54-	=54-	=54-	=54-	=54-
*M2/1	*	*M2/1	*M2/1	*M2/1
*met(C|)	*	*met(C|)	*met(C|)	*met(C|)
*mmet(C)	*	*mmet(C)	*mmet(C)	*mmet(C)
1DD	.	1D	1d	1dd
*	*	*	*clefF4	*
2r	.	2r	2r	2r
2D/	.	2F\	2D/	2aa\
=55-	=55-	=55-	=55-	=55-
2C#X/	.	2E\	2C#X/	2aa\
!LO:TX:t=P:problem:kreska pseudotaktowa	!	!	!	!
2D/	.	2F#X\	2D/	2aa\
0GG	-	2.Gny\	0GG	2.bb-X\
.	.	4A\	.	4aa\
=56-	=56-	=56-	=56-	=56-
.	.	2B-X\	.	2gg\
.	.	2B-\	.	2gg\
1D	.	4A\	2D/	4aa\
.	.	4G\	.	16bb-X\LL
.	.	.	.	16aa\
.	.	.	.	16gg\
.	.	.	.	16ff\JJ
.	.	4A\	2Cny/	2ff\
.	.	4B-\	.	.
=57-	=57-	=57-	=57-	=57-
!LO:TX:t=P:problem:kreska pseudotaktowa	!	!	!	!
1Cny	.	4.c\	0C	2ee\
.	.	8Bny\	.	.
.	.	4A\	.	2ff\
.	.	8G\L	.	.
.	.	8Fny\J	.	.
*	*	*custos:E	*	*
!	!	!LO:LB:g=original	!	!
1C	.	4E\	.	4gg\
.	.	2F\	.	4aa\
.	.	.	.	2gg\
.	.	4E\	.	.
*	*	*	*custos:FF	*custos:ff
!	!	!	!LO:LB:g=original	!LO:LB:g=original
=58-	=58-	=58-	=58-	=58-
1FF	.	1F	1FF	1ff
*custos:FF	*	*	*	*
!LO:LB:g=original	!	!	!	!
2FF/	.	2r	2r	2r
2F\	.	2FF/	2F\	2aa\
=59-	=59-	=59-	=59-	=59-
2F\	.	2FF/	2F\	2aa\
!LO:TX:t=P:problem:kreska pseudotaktowa	!	!	!	!
2F\	.	2FF/	2F\	2aa\
2C/	.	2C/	2E\	2gg\
2D/	.	4D/	2D/	2ff\
.	.	4DD/	.	.
=60-	=60-	=60-	=60-	=60-
!LO:TX:t=P:problem:kreska pseudotaktowa	!	!	!	!
1AA	.	[2AA/	[2C#Xi/	8ee\L
.	.	.	.	16ccny\L
.	.	.	.	16dd\
.	.	.	.	16ee\
.	.	.	.	16ff\
.	.	.	.	16gg\
.	.	.	.	16ee\JJ
!	!	!	!	!LO:TX:t=P:problem:kreska pseudotaktowa
.	.	8AA/L]	8C#/L]	[2ff\
.	.	16FF/L	16AA/L	.
.	.	16GG/	16BB/	.
.	.	16AA/	16C#Xi/	.
.	.	16BB/	16D/	.
.	.	16C/	16E/	.
!	!	!LO:TX:t=P:problem:kreska pseudotaktowa	!LO:TX:t=P:problem:kreska pseudotaktowa	!
.	.	16AA/JJ	16C#Xi/JJ	.
1BB-X	.	[2BB-X/	[>2D/	8ff\L]
.	.	.	.	16dd\L
.	.	.	.	16ee\
.	.	.	.	16ff\
.	.	.	.	16gg\
.	.	.	.	16aa\
.	.	.	.	16ff\JJ
!	!	!	!	!LO:TX:t=P:problem:kreska pseudotaktowa
.	.	8BB-/L]	8D/L]	[2gg\
.	.	16GG/L	16BB-X/L	.
.	.	16AA/	16C#/	.
.	.	16BB-/	16D/	.
.	.	16C/	16E/	.
.	.	16D/	16F/	.
!	!	!	!LO:TX:t=P:problem:kreska pseudotaktowa	!
.	.	16BB-/JJ	16D/JJ	.
*	*	*custos:C	*	*
!	!	!LO:LB:g=original	!	!
=61-	=61-	=61-	=61-	=61-
!LO:TX:t=P:problem:kreska pseudotaktowa	!	!	!	!
1C	.	[2C/	[2E\	8gg\L]
.	.	.	.	16ee\L
.	.	.	.	16ff\
.	.	.	.	16gg\
.	.	.	.	16aa\
.	.	.	.	16bb-X\
.	.	.	.	16gg\JJ
.	.	8C/L]	8E\L]	1aa
.	.	16AA/L	16Cny\L	.
.	.	16BBny/	16D\JJ	.
.	.	16C/	16E\LL	.
.	.	16D/	16F\	.
.	.	16E/	16Gny\	.
!	!	!	!LO:TX:t=P:problem:kreska pseudotaktowa	!
.	.	16C/JJ	16E\JJ	.
4D/	.	4D/	8.F\L	.
.	.	.	16G\Jk	.
4F\	.	4F\	16A\LL	.
.	.	.	16B\	.
.	.	.	16cny\	.
.	.	.	16A\JJ	.
*	*	*	*clefC4	*
2G\	.	2G\	8B\L	2.gg\
.	.	.	16G\L	.
.	.	.	16A\JJ	.
*	*	*	*custos:B	*
!	!	!	!LO:LB:g=original	!
.	.	.	16B\LL	.
.	.	.	16c\	.
.	.	.	16d\	.
!	!	!	!LO:TX:t=P:problem:kreska pseudotaktowa	!
.	.	.	16B\JJ	.
=62-	=62-	=62-	=62-	=62-
0A	.	0A	4c#X\	.
.	.	.	8A/L	4ff\
.	.	.	8B/J	.
.	.	.	4c#Xi\	4ee\
.	.	.	4d\	4dd\
.	.	.	4e\	4cc#X\
.	.	.	4f\	2dd\
.	.	.	2e\	.
.	.	.	.	4cc#Xi\
=63-	=63-	=63-	=63-	=63-
!LO:TX:t=P:problem:kreska pseudotaktowa	!	!LO:TX:t=P:problem:kreska pseudotaktowa	!	!
1D	.	1D	1d	1dd
=64-	=64-	=64-	=64-	=64-
*M3/2	*	*M3/2	*M3/2	*M3/2
*met(3)	*	*met(3)	*met(3)	*met(3)
2.FF/	.	2.FF/	1f	1aa
4GG/	.	4GG/	.	.
2AA/	.	2AA/	2e\	2ccny\
=65-	=65-	=65-	=65-	=65-
1FF	.	1FF	1f	1aa
!LO:TX:t=P:problem:kreska pseudotaktowa	!	!	!	!
2GG/	.	2GG/	4e\	4gg\
.	.	.	4d\	4ff\
=66-	=66-	=66-	=66-	=66-
1AA	.	1AA	1c#X	2.ee\
.	.	.	.	4ff\
2DD/	.	2DD/	2d\	2dd\
*	*	*	*	*custos:cc#
!	!	!	!	!LO:LB:g=original
=67-	=67-	=67-	=67-	=67-
1AA	.	1AA	2.e\	2.cc#X\
.	.	.	4d\	4dd\
!LO:TX:t=P:problem:kreska pseudotaktowa	!	!	!	!
2AA/	.	2AA/	2c#X\	2ee\
*custos:D	*	*custos:DD	*	*
!LO:LB:g=original	!	!LO:LB:g=original	!	!
=68-	=68-	=68-	=68-	=68-
1D	.	1DD	1d	1dd
*	*	*clefC4	*clefF4	*
2D/	.	2f\	2DD/	2r
=69-	=69-	=69-	=69-	=69-
1FF	.	1f	1FF	1aa
!LO:TX:t=P:problem:kreska pseudotaktowa	!	!	!	!
2GG/	.	4e\	2GG/	4gg\
.	.	4d\	.	4ff\
=70-	=70-	=70-	=70-	=70-
1AA	.	1c#X	1AA	2.ee\
.	.	.	.	4ff\
2D/	.	2d\	2DD/	2dd\
=71-	=71-	=71-	=71-	=71-
1AA	.	2.e\	1AA	2.cc#X\
.	.	4d\	.	4dd\
!LO:TX:t=P:problem:kreska pseudotaktowa	!	!	!	!
2AA/	.	2c#Xi\	2AA/	2ee\
*	*	*	*custos:D	*
!	!	!	!LO:PB:g=original	!
=72-	=72-	=72-	=72-	=72-
*M2/1	*	*M2/1	*M2/1	*M2/1
*met(C|)	*	*met(C|)	*met(C|)	*met(C|)
*mmet(C)	*	*mmet(C)	*mmet(C)	*mmet(C)
1D	.	1d	1D	1dd
*clefC4	*	*	*	*
4d\	.	4d\	1r	4dd\
8d\L	.	8d\L	.	8dd\L
8d\J	.	8d\J	.	8dd\J
4d\	.	4d\	.	4dd\
!LO:TX:t=P:problem:kreska pseudotaktowa	!	!	!	!
4c#X\	.	4c#Xi\	.	4ee\
=73-	=73-	=73-	=73-	=73-
2d\	.	2d\	8r	4ff\
.	.	.	8D/L	.
.	.	.	8D/	4dd\
.	.	.	8D/J	.
2B-X\	.	2B-X\	4D/	4ff\
.	.	.	4E\	4gg\
!	!	!LO:LB:g=original	!	!
4A/	.	8A/L	4F\	2aa\
.	.	8D/	.	.
*clefF4	*	*	*	*
8D/L	.	8D/	4D/	.
8D/J	.	8D/J	.	.
4D/	.	4D/	4F\	8r
.	.	.	.	8dd\L
4E\	.	4E/	4G\	8ccny\
.	.	.	.	8b-Xi\J
*custos:F	*	*	*	*custos:a
!LO:LB:g=original	!	!	!	!LO:PB:g=original
=74-	=74-	=74-	=74-	=74-
4F\	.	4F/	2A\	4a/
4D/	.	4D/	.	8a/L
.	.	.	.	8a/J
!	!	!	!LO:TX:t=P:problem:kreska pseudotaktowa	!
4F\	.	4F/	2r	4a/
4G\	.	4G/	.	4bny/
*	*	*	*clefC4	*
2.A\	.	2A/	8r	2.cc#X\
.	.	.	8A/L	.
.	.	.	8A/	.
.	.	.	8A/J	.
.	.	2r	4A/	.
!LO:TX:t=P:problem:kreska pseudotaktowa	!	!	!	!
4D/	.	.	4B\	4dd\
=75-	=75-	=75-	=75-	=75-
2A\	.	4r	2c#X\	2ee\
.	.	4A/	.	.
2B-X\	.	2B-X\	2d\	2r
!LO:TX:t=P:problem:kreska pseudotaktowa	!	!	!	!
1A	.	0A	2c#X\	8r
.	.	.	.	8ee\L
.	.	.	.	8ee\
.	.	.	.	8dd\J
!	!	!	!	!LO:TX:t=P:problem:kreska pseudotaktowa
.	.	.	8r	2cc#X\
.	.	.	8e\L	.
.	.	.	8e\	.
!	!	!	!LO:TX:t=P:problem:kreska pseudotaktowa	!
.	.	.	8d\J	.
=76-	=76-	=76-	=76-	=76-
0AA	.	.	2c#X\	8r
!	!	!	!	!LO:TX:a:t=P:problem:# below
.	.	.	.	16cc#X\LL
.	.	.	.	16dd\J
.	.	.	.	8ee\
.	.	.	.	8dd\J
.	.	.	8r	2cc#X\
.	.	.	16c#Xi\LL	.
.	.	.	16d\J	.
.	.	.	8e\	.
!	!	!	!LO:TX:t=P:problem:kreska pseudotaktowa	!
.	.	.	8d\J	.
*	*	*clefF4	*	*
.	.	2r	8c#X\L	8r
.	.	.	16A\L	16cc#Xi\LL
.	.	.	16B\J	16dd\J
.	.	.	8c#Xi\	8ee\
.	.	.	8B\J	8dd\J
*	*	*	*custos:A	*
!	!	!	!LO:LB:g=original	!
.	.	2AA/	16A/LL	16cc#\LL
.	.	.	16B/	16dd\
.	.	.	16G/	16b\
.	.	.	16A/JJ	16cc#\JJ
.	.	.	16F/LL	16a/LL
.	.	.	16G/	16b/
.	.	.	16E/	16gny/
!	!	!	!LO:TX:t=P:problem:kreska pseudotaktowa	!LO:TX:t=P:problem:kreska pseudotaktowa
.	.	.	16F/JJ	16a/JJ
*	*	*	*clefF4	*
=77-	=77-	=77-	=77-	=77-
!	!	!	!	!LO:TX:t=P:problem:mixed beam
1BB-X	.	2BB-X/	4.D/	8f/L
.	.	.	.	16dd\L
.	.	.	.	16ee\J
.	.	.	.	8ff\
.	.	.	8C/	8ee\J
*	*	*clefC4	*	*
.	.	8r	1BB-X	2dd\
.	.	16d\LL	.	.
.	.	16e\JJ	.	.
.	.	8f\L	.	.
.	.	8e\J	.	.
*	*	*custos:d	*	*
!LO:TX:t=P:problem:kreska pseudotaktowa	!	!LO:LB:g=original	!	!
1BB-X	.	8d\L	.	8r
.	.	16B-X\L	.	16dd\LL
.	.	16cny\JJ	.	16ee\J
.	.	8d\L	.	8ff\
.	.	8c\J	.	8ee\J
*	*	*	*	*custos:dd
!	!	!	!LO:TX:t=P:problem:kreska pseudotaktowa	!LO:LB:g=original
.	.	16B-X\LL	2BB-/	16dd\LL
.	.	16c\	.	16ee\
.	.	16A\	.	16ccny\
.	.	16B-\JJ	.	16dd\JJ
.	.	16G/LL	.	16b/LL
.	.	16A/	.	16cc/
.	.	16F/	.	16a/
!	!	!	!	!LO:TX:t=P:problem:kreska pseudotaktowa
.	.	16G/JJ	.	16b/JJ
=78-	=78-	=78-	=78-	=78-
!	!	!	!	!LO:TX:t=P:problem:mixed beam
0C	.	4.E/	2C/	8g/L
.	.	.	.	16ee\L
.	.	.	.	16ff\J
.	.	.	.	8gg\
.	.	8D/	.	8ff\J
*	*	*	*clefC3	*
.	.	1C	8r	2ee\
.	.	.	16e\LL	.
.	.	.	16f\J	.
.	.	.	8g\	.
!	!	!	!LO:TX:t=P:problem:kreska pseudotaktowa	!
.	.	.	8f\J	.
.	.	.	8e\L	8r
.	.	.	16cny\L	16ee\LL
.	.	.	16d\JJ	16ff\J
.	.	.	8e\L	8gg\
.	.	.	8d\J	8ff\J
!	!	!LO:TX:t=P:problem:kreska pseudotaktowa	!	!
.	.	2C/	16c/LL	16ee\LL
.	.	.	16d/	16ff\
.	.	.	16B/	16dd\
.	.	.	16c/JJ	16ee\JJ
.	.	.	16A/LL	16cc\LL
.	.	.	16B/	16dd\
.	.	.	16G/	16b\
!	!	!	!LO:TX:t=P:problem:kreska pseudotaktowa	!LO:TX:t=P:problem:kreska pseudotaktowa
.	.	.	16A/JJ	16cc\JJ
*	*	*	*clefF4	*
=79-	=79-	=79-	=79-	=79-
!LO:TX:t=P:problem:kreska pseudotaktowa	!	!	!	!LO:TX:t=P:problem:mixed beam
0D	.	2D/	4.F\	8a/L
.	.	.	.	16ff\L
.	.	.	.	16gg\J
.	.	.	.	8aa\
.	.	.	8E\	8gg\J
.	.	8r	1D	2ff\
.	.	16F/LL	.	.
.	.	16G/JJ	.	.
.	.	8A/L	.	.
!	!	!LO:TX:t=P:problem:kreska pseudotaktowa	!	!
.	.	8G/J	.	.
*	*	*custos:F	*	*
!	!	!LO:LB:g=original	!	!
.	.	8F/	.	8r
.	.	16d\LL	.	16ff\LL
.	.	16e\JJ	.	16gg\J
.	.	8f\L	.	8aa\
.	.	8e\J	.	8gg\J
.	.	16d\LL	2D/	16ff\LL
.	.	16e\	.	16gg\
.	.	16c\	.	16ee\
.	.	16d\	.	16ff\JJ
.	.	16Bny\	.	16dd\LL
.	.	16c\	.	16ee\
.	.	16A\	.	16cc\
!	!	!LO:TX:t=P:problem:kreska pseudotaktowa	!	!LO:TX:t=P:problem:kreska pseudotaktowa
.	.	16B\JJ	.	16dd\JJ
*	*	*	*custos:E	*
!	!	!	!LO:LB:g=original	!
=80-	=80-	=80-	=80-	=80-
1E	.	4G#X/	1E	4b/
.	.	2A/	.	4cc\
.	.	.	.	2b/
.	.	4G#X/	.	.
*	*	*	*	*custos:a
!	!	!	!	!LO:LB:g=original
!	!	!	!	!LO:TX:t=P:problem:mixed beam
0AA	.	2A/	0AA	8a/L
.	.	.	.	8ee\
.	.	.	.	8ee\
.	.	.	.	8dd\J
.	.	8r	.	2cc#X\
.	.	8e\L	.	.
.	.	8e\	.	.
!	!	!LO:TX:t=P:problem:kreska pseudotaktowa	!	!
.	.	8d\J	.	.
=81-	=81-	=81-	=81-	=81-
.	.	2c#X\	.	8r
.	.	.	.	16cc#Xi\LL
.	.	.	.	16dd\J
.	.	.	.	8ee\
.	.	.	.	8dd\J
!	!	!	!	!LO:TX:t=P:problem:kreska pseudotaktowa
.	.	8r	.	2cc#X\
.	.	16c#\LL	.	.
.	.	16d\JJ	.	.
.	.	8e\L	.	.
.	.	8d\J	.	.
*	*	*custos:c#	*	*
!LO:TX:t=P:problem:kreska pseudotaktowa	!	!LO:LB:g=original	!	!
1AA	.	8c#X\L	1AA	8r
.	.	16A\L	.	16cc#Xi\LL
.	.	16B\JJ	.	16dd\J
.	.	8c#\L	.	8ee\
.	.	8B\J	.	8dd\J
.	.	16A/LL	.	16cc#\LL
.	.	16B/	.	16dd\
.	.	16Gny/	.	16b\
.	.	16A/	.	16cc#\JJ
.	.	16F/	.	16a/LL
.	.	16G/	.	16b/
.	.	16E/	.	16g/
!	!	!	!	!LO:TX:t=P:problem:kreska pseudotaktowa
.	.	16F/JJ	.	16a/JJ
*	*	*clefF4	*	*
=82-	=82-	=82-	=82-	=82-
!	!	!	!	!LO:TX:t=P:problem:mixed beam
0BB-X	.	4.D/	2BB-X/	8f/L
.	.	.	.	16dd\L
.	.	.	.	16ee\J
.	.	.	.	8ff\
.	.	8C/	.	8ee\J
*	*	*	*clefC4	*
.	.	1BB-X	8r	2dd\
.	.	.	16d\LL	.
.	.	.	16e\JJ	.
.	.	.	8f\L	.
!	!	!	!LO:TX:t=P:problem:kreska pseudotaktowa	!
.	.	.	8e\J	.
.	.	.	8d\L	8r
.	.	.	16B-X\L	16dd\LL
.	.	.	16c\JJ	16ee\J
.	.	.	8d\L	8ff\
.	.	.	8c\J	8ee\J
!	!	!LO:TX:t=P:problem:kreska pseudotaktowa	!	!
.	.	2BB-/	16B-X\LL	16dd\LL
.	.	.	16c\	16ee\
.	.	.	16A\	16ccny\
.	.	.	16B-\JJ	16dd\JJ
.	.	.	16G/LL	16b/LL
.	.	.	16A/	16cc/
.	.	.	16F/	16a/
!	!	!	!	!LO:TX:t=P:problem:kreska pseudotaktowa
.	.	.	16G/JJ	16b/JJ
*custos:C	*	*	*clefF4	*
!LO:LB:g=original	!	!	!	!
=83-	=83-	=83-	=83-	=83-
!LO:TX:t=P:problem:kreska pseudotaktowa	!	!	!	!LO:TX:t=P:problem:mixed beam
0C	.	2C/	4.E\	8g/L
.	.	.	.	16ee\L
.	.	.	.	16ff\J
.	.	.	.	8gg\
.	.	.	8D/	8ff\J
*	*	*clefC4	*	*
.	.	8r	1C	2ee\
.	.	16e\LL	.	.
.	.	16f\J	.	.
.	.	8g\	.	.
!	!	!LO:TX:t=P:problem:kreska pseudotaktowa	!	!
.	.	8f\J	.	.
*	*	*custos:e	*	*custos:ee
!	!	!LO:LB:g=original	!	!LO:LB:g=original
.	.	8e\L	.	8r
.	.	16cny\L	.	16ee\LL
.	.	16d\JJ	.	16ff\J
.	.	8e\L	.	8gg\
.	.	8d\J	.	8ff\J
!	!	!	!LO:TX:t=P:problem:kreska pseudotaktowa	!
.	.	16c\LL	2C/	16ee\LL
.	.	16d\	.	16ff\
.	.	16B\	.	16dd\
.	.	16c\	.	16ee\JJ
.	.	16A\	.	16cc\LL
.	.	16B\	.	16dd\
.	.	16G\	.	16b\
!	!	!	!	!LO:TX:t=P:problem:kreska pseudotaktowa
.	.	16A\JJ	.	16cc\JJ
*	*	*clefF4	*	*
=84-	=84-	=84-	=84-	=84-
!	!	!	!	!LO:TX:t=P:problem:mixed beam
0D	.	4.F\	2D/	8a/L
.	.	.	.	16ff\L
.	.	.	.	16gg\J
.	.	.	.	8aa\
.	.	8E\	.	8gg\J
*	*	*	*clefC3	*
.	.	1D	8r	2ff\
.	.	.	16f\LL	.
.	.	.	16g\JJ	.
.	.	.	8a\L	.
!	!	!	!LO:TX:t=P:problem:kreska pseudotaktowa	!
.	.	.	8g\J	.
.	.	.	8f\L	8r
.	.	.	16d\L	16ff\LL
.	.	.	16e\JJ	16gg\J
.	.	.	8f\L	8aa\
.	.	.	8e\J	8gg\J
*	*	*	*custos:d	*
!	!	!	!LO:LB:g=original	!
.	.	2D/	16d\LL	16ff\LL
.	.	.	16e\	16gg\
.	.	.	16c\	16ee\
.	.	.	16d\JJ	16ff\JJ
.	.	.	16Bny/LL	16dd\LL
.	.	.	16c/	16ee\
.	.	.	16A/	16cc\
.	.	.	16B/JJ	16dd\JJ
=85-	=85-	=85-	=85-	=85-
!LO:TX:t=P:problem:kreska pseudotaktowa	!	!	!	!
1E	.	1E	4G#X/	4b/
.	.	.	2A/	4cc\
!	!	!	!	!LO:TX:t=P:problem:kreska pseudotaktowa
.	.	.	.	2b/
.	.	.	4G#Xi/	.
=86-	=86-	=86-	=86-	=86-
*M3/2	*	*M3/2	*M3/2	*M3/2
*met(3)	*	*met(3)	*met(3)	*met(3)
1AA	.	1AA	1A	1a
2AA/	.	2AA/	2e\	2cc\
=87-	=87-	=87-	=87-	=87-
1FF	.	1FF	1f	1aa
!LO:TX:t=P:problem:kreska pseudotaktowa	!	!	!	!
2GG/	.	2GG/	4e\	4gg\
.	.	.	4d\	4ff\
*	*	*custos:AA	*	*
!	!	!LO:LB:g=original	!	!
=88-	=88-	=88-	=88-	=88-
1AA	.	1AA	1c#X	2.ee\
.	.	.	.	4ff\
2DD/	.	2DD/	2d\	2dd\
=89-	=89-	=89-	=89-	=89-
!	!	!	!	!LO:TX:b:t=P:problem:# below
1AA	.	1AA	2.e\	2.cc#X\
.	.	.	4d\	4dd\
*	*	*	*	*custos:ee
!	!	!	!LO:TX:t=P:problem:kreska pseudotaktowa	!LO:LB:g=original
!LO:TX:t=P:problem:kreska pseudotaktowa	!	!	!LO:TX:b:t=P:problem:# below	!
2AA/	.	2AA/	2c#X/	2ee\
=90-	=90-	=90-	=90-	=90-
1D	.	1D	1d	1dd
*	*	*	*clefF4	*
2D/	.	2F\	2DD/	2r
=91-	=91-	=91-	=91-	=91-
1FF	.	2.F\	1FF	1aa
.	.	4E\	.	.
!LO:TX:t=P:problem:kreska pseudotaktowa	!	!	!	!
2GG/	.	2D/	2GG/	4gg\
.	.	.	.	4ff\
=92-	=92-	=92-	=92-	=92-
1AA	.	1C#X	1AA	2.ee\
.	.	.	.	4ff\
2DD/	.	2D/	2DD/	2dd\
=93-	=93-	=93-	=93-	=93-
1AA	.	2.E\	1AA	2.cc#X\
.	.	4D/	.	4dd\
2AA/	.	2C#X/	2AA/	2ee\
*custos:DD	*	*	*	*
!LO:LB:g=original	!	!	!	!
=94-	=94-	=94-	=94-	=94-
*M2/1	*	*M2/1	*M2/1	*M2/1
*met(C|)	*	*met(C|)	*met(C|)	*met(C|)
*mmet(C)	*	*mmet(C)	*mmet(C)	*mmet(C)
1DD	.	1D	1DD	1dd
*	*	*	*clefC4	*
2r	.	2r	2r	2r
!LO:TX:t=P:problem:kreska pseudotaktowa	!	!	!	!
2D/	.	2D/	2f\	2dd\
=95-	=95-	=95-	=95-	=95-
2D/	.	2D/	2f\	2dd\
2D/	.	2D/	2f\	2dd\
*	*	*custos:AA	*	*
!LO:TX:t=P:problem:kreska pseudotaktowa	!	!LO:LB:g=original	!	!
1AA	.	1AA	1e	1cc#X
=96-	=96-	=96-	=96-	=96-
2r	.	2r	2r	2r
2D/	.	2DD/	2d\	2ff\
!	!	!	!LO:LB:g=original	!
2D/	.	2DD/	2d\	2ff\
!	!	!LO:TX:b:t=Verte	!	!
!LO:TX:t=P:problem:kreska pseudotaktowa	!	!	!	!
2D/	.	2DD/	2d\	2ff\
*	*	*custos:AA	*	*
!	!	!LO:LB:g=original	!	!
=97-	=97-	=97-	=97-	=97-
!	!	!	!	!LO:TX:t=P:problem:kreska pseudotaktowa
1AA	.	1AA	1c#X	1ee
*	*	*	*clefF4	*
8r	.	8r	8r	8r
8D/L	.	8F\L	8DD/L	8dd\L
8D/	.	8F\	8DD/	8dd\
8D/J	.	8F\J	8DD/J	8dd\J
8AA/L	.	8.E\L	8.AA/L	8.cc#X\L
8AA/	.	.	.	.
.	.	16E\Jk	16AA/Jk	16cc#\Jk
8AA/	.	8.E\L	8.AA/L	8.cc#\L
8AA/J	.	.	.	.
!	!	!LO:TX:t=P:problem:kreska pseudotaktowa	!LO:TX:t=P:problem:kreska pseudotaktowa	!
.	.	16E\Jk	16AA/Jk	16cc#\Jk
=98-	=98-	=98-	=98-	=98-
8D/L	.	8.D/L	8.DD/L	8.ff\L
8D/	.	.	.	.
.	.	16D/Jk	16DD/Jk	16ff\Jk
8D/	.	8.D/L	8.DD/L	8.ff\L
8D/J	.	.	.	.
.	.	16D/Jk	16DD/Jk	16ff\Jk
*	*	*	*	*custos:ee
!	!	!	!	!LO:LB:g=original
8AA/L	.	8.C#X/L	8.AA/L	8.ee\L
8AA/	.	.	.	.
.	.	16C#/Jk	16AA/Jk	16ee\Jk
8AA/	.	8.C#/L	8.AA/L	8.ee\L
!LO:TX:t=P:problem:kreska pseudotaktowa	!	!	!	!
8AA/J	.	.	.	.
!	!	!LO:TX:t=P:problem:kreska pseudotaktowa	!LO:TX:t=P:problem:kreska pseudotaktowa	!LO:TX:t=P:problem:kreska pseudotaktowa
.	.	16C#/Jk	16AA/Jk	16ee\Jk
*custos:D	*	*	*	*
!LO:PB:g=original	!	!	!LO:TX:t=P:problem:mixed beam	!
4D/	.	8.D/L	8.DD/L	8.dd\L
.	.	16D/Jk	16F\Jk	16dd\Jk
4AA/	.	8.AA/L	8.E\L	8.cc#Xi\L
.	.	16AA/Jk	16E\Jk	16cc#\Jk
4D/	.	8.DD/L	8.D/L	8.ff\L
.	.	16DD/Jk	16D/Jk	16ff\Jk
*	*	*custos:AA	*	*
!LO:TX:t=P:problem:kreska pseudotaktowa	!	!LO:LB:g=original	!	!
4AA/	.	8.AA/L	8.C#X/L	8.ee\L
!	!	!	!LO:TX:t=P:problem:kreska pseudotaktowa	!LO:TX:t=P:problem:kreska pseudotaktowa
.	.	16AA/Jk	16C#/Jk	16ee\Jk
=99-	=99-	=99-	=99-	=99-
!	!	!LO:TX:t=P:problem:mixed beam	!	!
4D/	.	8.DD/L	8.D/L	8.dd\L
.	.	16F\Jk	16D/Jk	16dd\Jk
4AA/	.	8.E\L	8.AA/L	8.cc#Xi\L
.	.	16E\Jk	16AA/Jk	16cc#\Jk
4D/	.	8.D/L	8.DD/L	8.ff\L
.	.	16D/Jk	16DD/Jk	16ff\Jk
!LO:TX:t=P:problem:kreska pseudotaktowa	!	!	!	!
4AA/	.	8.C#X/L	8.AA/L	8.ee\L
!	!	!LO:TX:t=P:problem:kreska pseudotaktowa	!	!LO:TX:t=P:problem:kreska pseudotaktowa
.	.	16C#/Jk	16AA/Jk	16ee\Jk
*	*	*	*custos:DD	*
!	!	!	!LO:LB:g=original	!
!	!	!	!LO:TX:t=P:problem:mixed beam	!
4D/	.	8.D/L	8.DD/L	8.dd\L
.	.	16D/Jk	16F\Jk	16dd\Jk
4AA/	.	8.AA/L	8.E\L	8.cc#Xi\L
.	.	16AA/Jk	16E\Jk	16cc#\Jk
4D/	.	8.DD/L	8.D/L	8.ff\L
.	.	16DD/Jk	16D/Jk	16ff\Jk
!LO:TX:t=P:problem:kreska pseudotaktowa	!	!	!	!
4AA/	.	8.AA/L	8.C#X/L	8.ee\L
!	!	!LO:TX:t=P:problem:kreska pseudotaktowa	!LO:TX:t=P:problem:kreska pseudotaktowa	!LO:TX:t=P:problem:kreska pseudotaktowa
.	.	16AA/Jk	16C#/Jk	16ee\Jk
=100-	=100-	=100-	=100-	=100-
4D/	.	8.D/L	16F\LL	8.dd\L
.	.	.	16Gny\	.
.	.	.	16A\	.
.	.	16D/Jk	16F\JJ	16dd\Jk
4AA/	.	8.AA/L	16E\LL	8.cc#Xi\L
.	.	.	16F\	.
.	.	.	16G\	.
.	.	16AA/Jk	16E\JJ	16cc#\Jk
4D/	.	8.DD/L	16D\LL	16ff\LL
.	.	.	16E\	16gg\
.	.	.	16F\	16aa\
.	.	16DD/Jk	16D\JJ	16ff\JJ
*	*	*	*	*custos:ee
!LO:TX:t=P:problem:kreska pseudotaktowa	!	!	!	!LO:LB:g=original
4AA/	.	8.AA/L	16C#X/LL	16ee\LL
.	.	.	16D/	16ff\
.	.	.	16E/	16gg\
!	!	!	!LO:TX:t=P:problem:kreska pseudotaktowa	!
!	!	!	!LO:TX:a:t=P:problem:# below	!LO:TX:t=P:problem:kreska pseudotaktowa
.	.	16AA/Jk	16C#X/JJ	16ee\JJ
*	*	*custos:F	*	*
!	!	!LO:LB:g=original	!	!
4D/	.	16F\LL	8.D/L	16dd\LL
.	.	16G\	.	16ee\
.	.	16A\	.	16ff\
.	.	16F\JJ	16D/Jk	16dd\JJ
4AA/	.	16E\LL	8.AA/L	16cc#Xi\LL
.	.	16F\	.	16dd\
.	.	16G\	.	16ee\
.	.	16E\JJ	16AA/Jk	16cc#Xi\JJ
4D/	.	16D\LL	8.DD/L	16ff\LL
.	.	16E\	.	16gg\
.	.	16F\	.	16aa\
.	.	16D\JJ	16DD/Jk	16ff\JJ
!LO:TX:t=P:problem:kreska pseudotaktowa	!	!	!	!
4AA/	.	16C#X/LL	8.AA/L	16ee\LL
.	.	16D/	.	16ff\
.	.	16E/	.	16gg\
!	!	!LO:TX:t=P:problem:kreska pseudotaktowa	!LO:TX:t=P:problem:kreska pseudotaktowa	!LO:TX:t=P:problem:kreska pseudotaktowa
.	.	16C#/JJ	16AA/Jk	16ee\JJ
=101-	=101-	=101-	=101-	=101-
4D/	.	8.D/L	16F\LL	16dd\LL
.	.	.	16G\	16ee\
.	.	.	16A\	16ff\
.	.	16D/Jk	16F\JJ	16dd\JJ
4AA/	.	8.AA/L	16E\LL	16cc#Xi\LL
.	.	.	16F\	16dd\
.	.	.	16G\	16ee\
.	.	16AA/Jk	16E\JJ	16cc#Xi\JJ
*	*	*	*custos:D	*
!	!	!	!LO:LB:g=original	!
4D/	.	8.DD/L	16D\LL	16ff\LL
.	.	.	16E\	16gg\
.	.	.	16F\	16aa\
.	.	16DD/Jk	16D\JJ	16ff\JJ
!LO:TX:t=P:problem:kreska pseudotaktowa	!	!	!	!
4AA/	.	8.AA/L	16C#X/LL	16ee\LL
.	.	.	16D/	16ff\
.	.	.	16E/	16gg\
!	!	!	!LO:TX:t=P:problem:kreska pseudotaktowa	!
!	!	!LO:TX:t=P:problem:kreska pseudotaktowa	!LO:TX:a:t=P:problem:# below	!LO:TX:t=P:problem:kreska pseudotaktowa
.	.	16AA/Jk	16C#X/JJ	16ee\JJ
*	*	*clefF5	*	*
4C/	.	8.Cny\L	16E\LL	16ccny\LL
.	.	.	16F\	16dd\
.	.	.	16G\	16ee\
.	.	16C\Jk	16E\JJ	16cc\JJ
4GG/	.	8.GG/L	16D\LL	16b\LL
.	.	.	16E\	16cc\
.	.	.	16F\	16dd\
.	.	16GG/Jk	16D\JJ	16b\JJ
*	*	*custos:CC	*	*
!	!	!LO:LB:g=original	!	!
4C/	.	8.CC/L	16C#/LL	16ee\LL
.	.	.	16D/	16ff\
.	.	.	16E/	16gg\
.	.	16CC/Jk	16C#/JJ	16ee\JJ
!LO:TX:t=P:problem:kreska pseudotaktowa	!	!	!	!
4GG/	.	8.GG/L	16BBny/LL	16dd\LL
.	.	.	16C#/	16ee\
.	.	.	16D/	16ff\
!	!	!	!LO:TX:t=P:problem:kreska pseudotaktowa	!
.	.	16GG/Jk	16BB/JJ	16dd\JJ
*	*	*clefF4	*clefF5	*custos:cc
!	!	!	!	!LO:LB:g=original
=102-	=102-	=102-	=102-	=102-
4C/	.	16E\LL	8.Cny\L	16cc\LL
.	.	16F\	.	16dd\
.	.	16G\	.	16ee\
.	.	16E\JJ	16C\Jk	16cc\JJ
4GG/	.	16D\LL	8.GG/L	16b\LL
.	.	16E\	.	16cc\
.	.	16F\	.	16dd\
.	.	16E\JJ	16GG/Jk	16b\JJ
4C/	.	16C/LL	8.CC/L	16ee\LL
.	.	16D/	.	16ff\
.	.	16E/	.	16gg\
.	.	16C/JJ	16CC/Jk	16ee\JJ
!LO:TX:t=P:problem:kreska pseudotaktowa	!	!	!	!
4GG/	.	16BBny/LL	8.GG/L	16dd\LL
.	.	16C/	.	16ee\
.	.	16D/	.	16ff\
!	!	!LO:TX:t=P:problem:kreska pseudotaktowa	!LO:TX:t=P:problem:kreska pseudotaktowa	!LO:TX:t=P:problem:kreska pseudotaktowa
.	.	16BB/JJ	16GG/Jk	16dd\JJ
*custos:C	*	*clefF5	*clefF4	*
!LO:LB:g=original	!	!	!	!
4C/	.	8.C\L	16E\LL	16cc\LL
.	.	.	16F\	16dd\
.	.	.	16G\	16ee\
.	.	16C\Jk	16E\JJ	16cc\JJ
4GG/	.	8.GG/L	16D\LL	16b\LL
.	.	.	16E\	16cc\
.	.	.	16F\	16dd\
.	.	16GG/Jk	16D\JJ	16b\JJ
*	*	*	*custos:C	*
!	!	!	!LO:LB:g=original	!
4C/	.	8.CC/L	16C/LL	16ee\LL
.	.	.	16D/	16ff\
.	.	.	16E/	16gg\
.	.	16CC/Jk	16C/JJ	16ee\JJ
!LO:TX:t=P:problem:kreska pseudotaktowa	!	!	!	!
4GG/	.	8.GG/L	16BB/LL	16dd\LL
.	.	.	16C/	16ee\
.	.	.	16D/	16ff\
!	!	!	!LO:TX:t=P:problem:kreska pseudotaktowa	!LO:TX:t=P:problem:kreska pseudotaktowa
.	.	16GG/Jk	16BB/JJ	16dd\JJ
*	*	*clefC4	*	*
=103-	=103-	=103-	=103-	=103-
4AA/	.	16c\LL	8.AA/L	16a/LL
.	.	16d\	.	16b/
.	.	16e\	.	16cc/
.	.	16c\JJ	16AA/Jk	16a/JJ
*	*	*custos:B	*	*
!	!	!LO:LB:g=original	!	!
4E\	.	16B\LL	8.E\L	16g#X/LL
.	.	16c\	.	16a/
.	.	16d\	.	16b/
!	!	!	!	!LO:TX:b:t=P:problem:# below
.	.	16B\JJ	16E\Jk	16g#X/JJ
4AA/	.	16A\LL	8.AA/L	16cc\LL
.	.	16B\	.	16dd\
.	.	16c\	.	16ee\
.	.	16A\JJ	16AA/Jk	16cc\JJ
!LO:TX:t=P:problem:kreska pseudotaktowa	!	!	!	!
4E\	.	16G#X/LL	8.EE/L	16b\LL
.	.	16A/	.	16cc\
.	.	16B/	.	16dd\
!	!	!	!LO:TX:t=P:problem:kreska pseudotaktowa	!LO:TX:t=P:problem:kreska pseudotaktowa
.	.	16G#/JJ	16EE/Jk	16b\JJ
*	*	*clefF4	*clefC4	*
4AA/	.	8.AA/L	16cny\LL	16a/LL
.	.	.	16d\	16b/
.	.	.	16e\	16cc/
.	.	16AA/Jk	16c\JJ	16a/JJ
4E\	.	8.E\L	16B\LL	16g#X/LL
.	.	.	16c\	16a/
.	.	.	16d\	16b/
!	!	!	!	!LO:TX:b:t=P:problem:# below
.	.	16E\Jk	16B\JJ	16g#X/JJ
*	*	*	*	*custos:cc
!	!	!	!	!LO:LB:g=original
4AA/	.	8.AA/L	16A\LL	16cc\LL
.	.	.	16B\	16dd\
.	.	.	16c\	16ee\
.	.	16AA/Jk	16A\JJ	16cc\JJ
!LO:TX:t=P:problem:kreska pseudotaktowa	!	!	!	!
4E\	.	8.EE/L	16G#X/LL	16b\LL
.	.	.	16A/	16cc\
.	.	.	16B/	16dd\
!	!	!	!LO:TX:t=P:problem:kreska pseudotaktowa	!
!	!	!LO:TX:t=P:problem:kreska pseudotaktowa	!LO:TX:b:t=P:problem:# below	!LO:TX:t=P:problem:kreska pseudotaktowa
.	.	16EE/Jk	16G#X/JJ	16b\JJ
=104-	=104-	=104-	=104-	=104-
4AA/	.	8.AA/L	16A\LL	16cc\LL
.	.	.	16B\	16dd\
.	.	.	16c\	16ee\
.	.	16AA/Jk	16A\JJ	16cc\JJ
4GG/	.	8.GG/L	16B\LL	16dd\LL
.	.	.	16c\	16ee\
.	.	.	16d\	16ff\
.	.	16GG/Jk	16B\JJ	16dd\JJ
*	*	*	*custos:c	*
!	!	!	!LO:LB:g=original	!
4C/	.	4C/	16c\LL	16ee\LL
.	.	.	16d\	16ff\
.	.	.	16e\	16gg\
.	.	.	16c\JJ	16ee\JJ
!LO:TX:t=P:problem:kreska pseudotaktowa	!	!LO:TX:t=P:problem:kreska pseudotaktowa	!	!
4D/	.	4r	16d\LL	16ff#X\LL
.	.	.	16e\	16gg\
.	.	.	16f\	16aa\
!	!	!	!	!LO:TX:t=P:problem:kreska pseudotaktowa
!	!	!	!LO:TX:t=P:problem:kreska pseudotaktowa	!LO:TX:b:t=P:problem:# above
.	.	.	16d\JJ	16ff#Xi\JJ
2E\	.	16E\LL	4e\	16gg#X\LL
.	.	16F\	.	16aa\
.	.	16Gny\	.	16bb\
!	!	!	!	!LO:TX:b:t=P:problem:# above
.	.	16E\JJ	.	16gg#Xi\JJ
.	.	16F\LL	4r	16a/LL
.	.	16G\	.	16b/
.	.	16A\	.	16cc/
.	.	16F\JJ	.	16a/JJ
*	*	*custos:G#	*	*
!	!	!LO:LB:g=original	!	!
2.E\	.	16G#X\LL	16E/LL	4b/
.	.	16A\	16F#X/	.
.	.	16B\	16Gny/	.
.	.	16G#\JJ	16E/JJ	.
!	!	!	!	!LO:TX:t=P:problem:kreska pseudotaktowa
.	.	16A\LL	16F#X/LL	4a/
.	.	16B\	16G/	.
.	.	16c\	16A/	.
!	!	!	!LO:TX:t=P:problem:kreska pseudotaktowa	!
!	!	!LO:TX:t=P:problem:kreska pseudotaktowa	!LO:TX:b:t=P:problem:# below	!
.	.	16A\JJ	16F#X/JJ	.
=105-	=105-	=105-	=105-	=105-
.	.	8.E\L	16G#X/LL	16b\LL
.	.	.	16A/	16cc\
.	.	.	16B/	16dd\
!	!	!	!LO:TX:b:t=P:problem:# below	!
.	.	16E\Jk	16G#X/JJ	16b\JJ
4AA/	.	8.AA/L	16A\LL	16cc\LL
.	.	.	16B\	16dd\
.	.	.	16c\	16ee\
.	.	16AA/Jk	16A\JJ	16cc\JJ
4E\	.	8.EE/L	16B\LL	16g#X/LL
.	.	.	16c\	16a/
.	.	.	16d\	16b/
!	!	!	!	!LO:TX:b:t=P:problem:# above
.	.	16EE/Jk	16B\JJ	16g#Xi/JJ
4AA/	.	8.AA/L	16c\LL	16a/LL
.	.	.	16d\	16b/
.	.	.	16e\	16cc/
!	!	!	!	!LO:TX:t=P:problem:kreska pseudotaktowa
!	!	!	!LO:TX:t=P:problem:kreska pseudotaktowa	!
.	.	16AA/Jk	16c\JJ	16a/JJ
*	*	*	*	*custos:g
!LO:TX:t=P:problem:kreska pseudotaktowa	!	!	!	!LO:LB:g=original
1E	.	2E\	8B\L	16g#X/LL
.	.	.	.	16a/
!	!	!	!LO:TX:b:t=P:problem:# above	!
.	.	.	16G#Xi\L	16b/
.	.	.	16A\JJ	16cc/JJ
.	.	.	16B\LL	16dd\LL
.	.	.	16c\	16ee\
!	!	!	!	!LO:TX:b:t=P:problem:# above
.	.	.	16d\	16ff#Xi\
!	!	!	!	!LO:TX:b:t=P:problem:# above
.	.	.	16e\JJ	16gg#Xi\JJ
.	.	2EE/	2B\	16aa\LL
!	!	!	!	!LO:TX:b:t=P:problem:# above
.	.	.	.	16gg#Xi\
.	.	.	.	16aa\
!	!	!	!	!LO:TX:b:t=P:problem:# above
.	.	.	.	16gg#Xi\
.	.	.	.	16aa\
!	!	!	!	!LO:TX:b:t=P:problem:# above
.	.	.	.	16gg#Xi\
!	!	!	!	!LO:TX:b:t=P:problem:# above
.	.	.	.	16ff#Xi\
!	!	!	!	!LO:TX:b:t=P:problem:# above
.	.	.	.	16gg#Xi\JJ
*	*	*	*custos:A	*
!	!	!	!LO:LB:g=original	!
=106-	=106-	=106-	=106-	=106-
*M3/2	*	*M3/2	*M3/2	*M3/2
*met(3)	*	*met(3)	*met(3)	*met(3)
1AA	.	1AA	1A	1aa
2AA/	.	2AA/	2e\	2cc\
*custos:FF	*	*	*	*
!LO:LB:g=original	!	!	!	!
=107-	=107-	=107-	=107-	=107-
1FF	.	1FF	1f	1aa
!LO:TX:t=P:problem:kreska pseudotaktowa	!	!	!	!
2GG/	.	2GG/	4e\	4ggny\
.	.	.	4d\	4ffny\
=108-	=108-	=108-	=108-	=108-
1AA	.	1AA	1c#X	2.ee\
.	.	.	.	4ff\
2DD/	.	2DD/	2d\	2dd\
=109-	=109-	=109-	=109-	=109-
1AA	.	1AA	2.e\	2.cc#X\
.	.	.	4d\	4dd\
!	!	!	!LO:TX:t=P:problem:kreska pseudotaktowa	!
!LO:TX:t=P:problem:kreska pseudotaktowa	!	!	!LO:TX:b:t=P:problem:# above	!
2AA/	.	2AA/	2c#Xi\	2ee\
*	*	*custos:D	*	*
!	!	!LO:LB:g=original	!	!
=110-	=110-	=110-	=110-	=110-
1D	.	1D	1d	1dd
*	*	*clefC4	*clefF4	*
2D/	.	2f\	2DD/	2r
=111-	=111-	=111-	=111-	=111-
1FF	.	1f	1FF	1aa
!LO:TX:t=P:problem:kreska pseudotaktowa	!	!	!	!
2GG/	.	4e\	2GG/	4gg\
.	.	4d\	.	4ff\
=112-	=112-	=112-	=112-	=112-
1AA	.	1c#X	1AA	2.ee\
.	.	.	.	4ff\
2DD/	.	2d\	2DD/	2dd\
=113-	=113-	=113-	=113-	=113-
1AA	.	2.e\	1AA	2.cc#X\
.	.	4d\	.	4dd\
!LO:TX:t=P:problem:kreska pseudotaktowa	!	!	!LO:TX:t=P:problem:kreska pseudotaktowa	!
2AA/	.	2c#X\	2AA/	2ee\
*	*	*	*	*custos:dd
!	!	!	!	!LO:LB:g=original
=114-	=114-	=114-	=114-	=114-
1D	.	1d	1D	1dd
*	*	*	*clefC4	*
!	!	!	!	!LO:TX:t=P:problem:kreska pseudotaktowa
2D/	.	2D/	2f\	2r
=115-	=115-	=115-	=115-	=115-
1E	.	1E	1e	1gg
!LO:TX:t=P:problem:kreska pseudotaktowa	!	!	!	!
2F\	.	2F/	4d\	4ff\
.	.	.	4cny\	4ee\
=116-	=116-	=116-	=116-	=116-
1G	.	1Gny	1B	2.dd\
.	.	.	.	4ee\
2C/	.	2C/	2c\	2ccny\
*custos:G	*	*	*	*
!LO:LB:g=original	!	!	!	!
=117-	=117-	=117-	=117-	=117-
1G	.	1G	2.d\	2.b/
.	.	.	4c\	4cc\
!LO:TX:t=P:problem:kreska pseudotaktowa	!	!	!	!
2G\	.	2G/	2B\	2dd\
*	*	*	*custos:c	*
!	!	!	!LO:LB:g=original	!
=118-	=118-	=118-	=118-	=118-
1C	.	1C	1c	1cc
!	!	!	!	!LO:TX:t=P:problem:kreska pseudotaktowa
2C/	.	2e\	2C/	2r
*	*	*custos:e	*	*
!	!	!LO:LB:g=original	!	!
=119-	=119-	=119-	=119-	=119-
1E	.	1e	1E	1gg
!LO:TX:t=P:problem:kreska pseudotaktowa	!	!	!	!
2F\	.	4d\	2Fny/	4ff\
.	.	4cny\	.	4ee\
=120-	=120-	=120-	=120-	=120-
1G	.	1B	1Gny	2.dd\
.	.	.	.	4ee\
2C/	.	2c\	2C/	2cc\
=121-	=121-	=121-	=121-	=121-
1G	.	2.d\	1G	2.b/
.	.	4c\	.	4cc\
!LO:TX:t=P:problem:kreska pseudotaktowa	!	!	!	!
2G\	.	2B\	2G/	2dd\
=122-	=122-	=122-	=122-	=122-
1C	.	1c	1C	1cc
!	!	!	!LO:TX:t=P:problem:kreska pseudotaktowa	!
2C/	.	2r	2c\	2ee\
*	*	*clefF4	*	*
=123-	=123-	=123-	=123-	=123-
1C	.	1C	1c	1ee
!LO:TX:t=P:problem:kreska pseudotaktowa	!	!	!	!
2D/	.	2D/	4B\	4dd\
.	.	.	4A/	4cc\
=124-	=124-	=124-	=124-	=124-
1E	.	1E	1G#X	2.b/
.	.	.	.	4cc\
2AA/	.	2AA/	2A/	2a/
=125-	=125-	=125-	=125-	=125-
1E	.	1E	2.B\	2.g#X/
.	.	.	4A/	4a/
!LO:TX:t=P:problem:kreska pseudotaktowa	!	!	!LO:TX:b:t=P:problem:# below	!
2E\	.	2E\	2G#X/	2b/
=126-	=126-	=126-	=126-	=126-
1.AA	.	1AA	1A	1a
*	*	*	*clefF4	*
!	!	!	!	!LO:TX:t=P:problem:kreska pseudotaktowa
.	.	2c\	2AA/	2r
*custos:C	*	*	*	*custos:ee
!LO:LB:g=original	!	!	!	!LO:LB:g=original
=127-	=127-	=127-	=127-	=127-
1C	.	1c	1C	1ee
!LO:TX:t=P:problem:kreska pseudotaktowa	!	!	!	!
2D/	.	4B\	2D/	4dd\
.	.	4A\	.	4cc\
=128-	=128-	=128-	=128-	=128-
1E	.	1G#X	1E	2.b/
.	.	.	.	4cc\
2AA/	.	2A\	2AA/	2a/
*	*	*custos:B	*	*
!	!	!LO:LB:g=original	!	!
=129-	=129-	=129-	=129-	=129-
1E	.	2.B\	1E	2.g#X/
.	.	4A\	.	4a/
!LO:TX:t=P:problem:kreska pseudotaktowa	!	!	!	!
2E\	.	2G#X\	2E\	2b/
=130-	=130-	=130-	=130-	=130-
1.AA	.	1A	1AA	1a
*	*	*	*clefC4	*
.	.	2AA/	2f\	2cc\
*	*	*	*custos:f	*
!	!	!	!LO:LB:g=original	!
=131-	=131-	=131-	=131-	=131-
1FF	.	1FF	1f	1aa
!LO:TX:t=P:problem:kreska pseudotaktowa	!	!	!	!
2GG/	.	2GG/	4e\	4gg\
.	.	.	4d\	4ff\
=132-	=132-	=132-	=132-	=132-
1AA	.	1AA	1c#X	2.ee\
.	.	.	.	4ff\
2D/	.	2DD/	2d\	2dd\
=133-	=133-	=133-	=133-	=133-
1AA	.	1AA	2.e\	2.cc#X\
.	.	.	4d\	4dd\
!LO:TX:t=P:problem:kreska pseudotaktowa	!	!	!	!
2AA/	.	2AA/	2c#X\	2ee\
=134-	=134-	=134-	=134-	=134-
!	!	!	!	!LO:TX:t=P:problem:kreska pseudotaktowa
1.D	.	1DD	1d	1dd
!	!	!	!LO:TX:t=P:problem:kreska pseudotaktowa	!
.	.	2r	2r	2r
=135-	=135-	=135-	=135-	=135-
1FF	.	1FF	1f	1aa
!LO:TX:t=P:problem:kreska pseudotaktowa	!	!	!	!
2GG/	.	2GG/	4e\	4gg\
.	.	.	4d\	4ff\
=136-	=136-	=136-	=136-	=136-
1AA	.	1AA	1c#X	2.ee\
.	.	.	.	4ff\
2D/	.	2DD/	2d\	2dd\
=137-	=137-	=137-	=137-	=137-
1AA	.	1AA	2.e\	2.cc#X\
.	.	.	4d\	4dd\
2AA/	.	2AA/	2c#X\	2ee\
*custos:D	*	*	*	*
!LO:LB:g=original	!	!	!	!
=138-	=138-	=138-	=138-	=138-
*M2/1	*	*M2/1	*M2/1	*M2/1
*met(C|)	*	*met(C|)	*met(C|)	*met(C|)
*mmet(C)	*	*mmet(C)	*mmet(C)	*mmet(C)
!	!	!	!	!LO:TX:b:t=Verte:mod=
1D	.	1DD	2d\	1dd
!	!	!	!LO:TX:t=P:problem:kreska pseudotaktowa	!
!	!	!	!LO:TX:b:t=Verte.:mod=	!
.	.	.	2r	.
*	*	*custos:AA	*custos:d	*custos:dd
!	!	!LO:LB:g=original	!LO:PB:g=original	!LO:PB:g=original
4D/	.	1r	4d\	4dd\
8D/L	.	.	8d\L	8dd\L
8D/J	.	.	8d\J	8dd\J
4D/	.	.	4d\	4dd\
!LO:TX:t=P:problem:kreska pseudotaktowa	!	!	!	!
4C#X/	.	.	4c#X\	4ee\
=139-	=139-	=139-	=139-	=139-
2D/	.	1r	2d\	4ff\
.	.	.	.	4dd\
2BB-X/	.	.	2B-X\	4ff\
.	.	.	.	4gg\
4AA/	.	4AA/	2A/	1aa
8AA/L	.	8AA/L	.	.
8AA/J	.	8AA/J	.	.
4AA/	.	4AA/	4r	.
!LO:TX:t=P:problem:kreska pseudotaktowa	!	!	!	!
4AA/	.	4AA/	4A/	.
=140-	=140-	=140-	=140-	=140-
4BBny/	.	4BB/	2Gny/	1r
4Cny/	.	4C/	.	.
1D	.	1D	2F/	.
.	.	.	2E/	4r
.	.	.	.	4aa\
!LO:TX:t=P:problem:kreska pseudotaktowa	!	!	!	!
2C#X/	.	2C#X/	2E/	8.aa\L
.	.	.	.	16bb\Jk
.	.	.	.	8.aa\L
!	!	!	!	!LO:TX:t=P:problem:kreska pseudotaktowa
.	.	.	.	16gg\Jk
=141-	=141-	=141-	=141-	=141-
0D	.	0D	1D	4ff#X\
.	.	.	.	8dd\L
.	.	.	.	8dd\J
.	.	.	.	4dd\
.	.	.	.	4ee\
*	*	*	*clefC3	*
.	.	.	8r	4ff#\
.	.	.	8d\L	.
.	.	.	8d\	4dd\
.	.	.	8d\J	.
.	.	.	4d\	4ff#\
!	!	!	!LO:TX:t=P:problem:kreska pseudotaktowa	!LO:TX:t=P:problem:kreska pseudotaktowa
.	.	.	4e\	4gg\
=142-	=142-	=142-	=142-	=142-
4D/	.	8r	4f\	2aa\
.	.	8D/L	.	.
8D/L	.	8D/	4d\	.
8D/J	.	8D/J	.	.
4D/	.	4D/	4f\	8r
.	.	.	.	8dd\L
!LO:TX:t=P:problem:kreska pseudotaktowa	!	!	!	!
4E\	.	4E\	4g\	8ccny\
.	.	.	.	8b-Xi\J
*custos:F	*	*	*	*
!LO:LB:g=original	!	!	!	!
4F\	.	4F\	2a\	2a/
4D/	.	4D/	.	.
!	!	!	!	!LO:TX:t=P:problem:kreska pseudotaktowa
4F\	.	4F\	8r	2r
.	.	.	8a\L	.
4G\	.	4Gny\	8g\	.
.	.	.	8f\J	.
=143-	=143-	=143-	=143-	=143-
2A\	.	2A\	4.e\	8r
.	.	.	.	8aa\L
.	.	.	.	8gg\
.	.	.	8d\	8ffny\J
!LO:TX:t=P:problem:kreska pseudotaktowa	!	!	!	!LO:TX:t=P:problem:kreska pseudotaktowa
2AA/	.	8r	4cny/	2ee\
.	.	8A\L	.	.
.	.	8G\	8Bny/L	.
.	.	8F\J	8A/J	.
4.E\	.	4.E\	2B/	8r
.	.	.	.	8gg\L
.	.	.	.	8gg\
8D/	.	8D/	.	8ff\J
*	*	*custos:C	*	*custos:ee
!	!	!LO:LB:g=original	!	!LO:LB:g=original
4Cny/	.	4Cny/	2c/	8ee\L
.	.	.	.	16ff\L
.	.	.	.	16ee\J
8BB/L	.	8BB/L	.	8dd\
!	!	!	!	!LO:TX:t=P:problem:kreska pseudotaktowa
8AA/J	.	8AA/J	.	8cc\J
*	*	*	*custos:G#	*
!	!	!	!LO:LB:g=original	!
=144-	=144-	=144-	=144-	=144-
!LO:TX:t=P:problem:kreska pseudotaktowa	!	!	!	!
1E	.	2E\	8G#X/L	8bny\L
.	.	.	8c/	8ee\
.	.	.	8c/	8ee\
.	.	.	16B/L	16dd\L
.	.	.	16A/JJ	16cc\JJ
.	.	2EE/	8G#X/	8b\L
.	.	.	4A/	8cc\
.	.	.	.	8.b\
.	.	.	8G#Xi/	.
.	.	.	.	16cc\Jk
0AA	.	4AA/	2A/	1a
.	.	8A\L	.	.
.	.	8A\J	.	.
.	.	4A\	2r	.
.	.	4B\	.	.
*	*	*	*clefF4	*
=145-	=145-	=145-	=145-	=145-
.	.	4c#X\	8r	1r
.	.	.	8AA/L	.
.	.	4A\	8AA/	.
.	.	.	8AA/J	.
.	.	4c#\	4AA/	.
!	!	!	!LO:TX:t=P:problem:kreska pseudotaktowa	!
.	.	4d\	4BB/	.
0AA	.	2A\	4C#X/	8r
.	.	.	.	8a/L
.	.	.	4AA/	8a/
.	.	.	.	8a/J
!	!	!	!LO:TX:a:t=P:problem:# below	!
.	.	2AA/	4C#X/	4a/
!	!	!	!	!LO:TX:t=P:problem:kreska pseudotaktowa
.	.	.	4D/	4b/
=146-	=146-	=146-	=146-	=146-
!LO:TX:t=P:problem:kreska pseudotaktowa	!	!	!	!
.	.	2r	8AA/	4cc\
*	*	*	*clefC4	*
.	.	.	8A/L	.
.	.	.	8A/	4a/
.	.	.	8A/J	.
.	.	[2A\	4A/	4cc\
!	!	!	!LO:TX:t=P:problem:kreska pseudotaktowa	!
.	.	.	4B\	4dd\
2AA/	.	8A\L]	4c#X\	2ee\
.	.	8G\	.	.
.	.	8F\	4A/	.
.	.	8E\J	.	.
2D/	.	4D/	1d\	4ff\
.	.	8C/L	.	4gg\
.	.	8BB/J	.	.
*	*	*custos:AA	*	*
!	!	!LO:LB:g=original	!	!
=147-	=147-	=147-	=147-	=147-
1AA	.	4AA/	.	4aa\
.	.	4GG/	.	4bb-X\
.	.	2AA/	2c#X\	2ee\
!LO:MO:mod=0.D;	!	!LO:MO:mod=0.D;	!LO:MO:mod=0.d;	!LO:MO:mod=0.dd;
0.Dl;;	.	0.Dl;;	0.dl;;	0.ddl;;
==	==	==	==	==
*-	*-	*-	*-	*-
!!!system-decoration: s1,s2,s3,s4
!!!RDF**kern: > = above
!!!RDF**kern: < = below
!!!RDF**kern: i = editorial accidental
!!!RDF**kern: l = terminal long
!!!ENC: Filip Voros
!!!END: 2022-11-07
!!!ENG: Jan Barakat
!!!END: 2022-11-17
!!!ENC-modern: Leszek Kubiak
!!!END-modern: 2022-11-30
!!!YEC: Copyright 2022 Narodowy Instytut Fryderyka Chopina (https://polishscores.org)
!!!YEM: License CC-BY-4.0 (https://creativecommons.org/licenses/by/4.0)
!!!filter-modern: sic -sq | autostem -r | tie -si | shed -e "s/^custos:/Xcustos:/I" | shed -e "s/^(\d+[\/\\]right)/$1yy/I; s/^(\d+[\/\\]left)/$1yy/I" | shed -e "s/-//B" | shed -e "s/TX(.*):t=P:/tx$1:t=P:/LG" | modori -m |
